X: 21611
T: Killavil Fancy, The
R: reel
M: 4/4
K: Gmajor
DGBG A2BA|GE~E2 cEGE|DGBG ~A3B|GEFD EGGA|
~B3d ~A3F|GE~E2 cEGE|DGBG ~A3B|GEED EGGD||
G2Bd efge|dBAB dBAB|G2Bd efge|dBAG EGGD|
G2Bd efge|dB~B2 dega|(3bag ag egde|gedB AGED||

